X:43
T:Vulcan's Cave. Le4.043
T:King of the Cannibal Islands,aka. Le4.043
T:Hilly-go, Filly-go All the Way,aka. Le4.043
B:L.Leadley MS#4 c1850
Z:Village Music Project, 2016 Steve Mansfield
M:6/8
L:1/8
Q:3/8=90
N:* Repeat is | d3 z2z :: f2f f2e | in Mss
N:** stet, extra bar is notated in Mss
K:D
A | f2e d2c | "_sic"c2B A2F | GFG EFG | F2G A2A |
B2G d2d | A2F d2d | cde ABc | d3 z2 :|
|: "*" z | f2f f2e | f2f f2e | fef g2f | e2e e2z |
d2d d2c | d2d d2c | dcd e2d | cde ABc |
d3 cBA | B2c d3 | d3 cBA | B2c d2f |
e2a f2a | e2a f2a | "**" e2a f2a | eAB cde | d3 z2z :|

